img/icons/status/alert.svg

<svg width="19" height="18" viewBox="0 0 19 18" fill="none" xmlns="http://www.w3.org/2000/svg">
<path d="M9.53735 11.5875H10.2874C10.2874 11.1733 9.95157 10.8375 9.53735 10.8375V11.5875ZM9.53735 11.6625L9.53717 12.4125C9.73611 12.4125 9.92692 12.3335 10.0676 12.1929C10.2083 12.0522 10.2874 11.8614 10.2874 11.6625H9.53735ZM9.46265 11.6624H8.71265C8.71265 12.0766 9.04832 12.4123 9.46246 12.4124L9.46265 11.6624ZM9.46265 11.5875V10.8375C9.04843 10.8375 8.71265 11.1733 8.71265 11.5875H9.46265ZM10.25 6.33746C10.25 5.92325 9.91421 5.58746 9.5 5.58746C9.08579 5.58746 8.75 5.92325 8.75 6.33746H10.25ZM8.75 9.33746C8.75 9.75168 9.08579 10.0875 9.5 10.0875C9.91421 10.0875 10.25 9.75168 10.25 9.33746H8.75ZM9.5 15C6.18629 15 3.5 12.3137 3.5 9H2C2 13.1421 5.35786 16.5 9.5 16.5V15ZM3.5 9C3.5 5.68629 6.18629 3 9.5 3V1.5C5.35786 1.5 2 4.85786 2 9H3.5ZM9.5 3C12.8137 3 15.5 5.68629 15.5 9H17C17 4.85786 13.6421 1.5 9.5 1.5V3ZM15.5 9C15.5 12.3137 12.8137 15 9.5 15V16.5C13.6421 16.5 17 13.1421 17 9H15.5ZM8.78735 11.5875V11.6625H10.2874V11.5875H8.78735ZM9.53754 10.9125L9.46283 10.9124L9.46246 12.4124L9.53717 12.4125L9.53754 10.9125ZM10.2126 11.6624V11.5875H8.71265V11.6624H10.2126ZM9.46265 12.3375H9.53735V10.8375H9.46265V12.3375ZM8.75 6.33746V9.33746H10.25V6.33746H8.75Z" fill="#C8C8C8"/>
</svg>

<svg width="19" height="18" fill="none" xmlns="http://www.w3.org/2000/svg"><path d="M9.537 11.588h.75a.75.75 0 0 0-.75-.75v.75Zm0 .075v.75a.75.75 0 0 0 .75-.75h-.75Zm-.074 0h-.75c0 .414.335.75.75.75v-.75Zm0-.075v-.75a.75.75 0 0 0-.75.75h.75Zm.787-5.25a.75.75 0 0 0-1.5 0h1.5Zm-1.5 3a.75.75 0 1 0 1.5 0h-1.5ZM9.5 15a6 6 0 0 1-6-6H2a7.5 7.5 0 0 0 7.5 7.5V15Zm-6-6a6 6 0 0 1 6-6V1.5A7.5 7.5 0 0 0 2 9h1.5Zm6-6a6 6 0 0 1 6 6H17a7.5 7.5 0 0 0-7.5-7.5V3Zm6 6a6 6 0 0 1-6 6v1.5A7.5 7.5 0 0 0 17 9h-1.5Zm-6.713 2.588v.075h1.5v-.075h-1.5Zm.75-.675h-.074v1.5h.074v-1.5Zm.676.75v-.075h-1.5v.074h1.5Zm-.75.675h.074v-1.5h-.074v1.5Zm-.713-6v3h1.5v-3h-1.5Z" fill="#C8C8C8"/></svg>
